X:1
T:In quo corriget adolescentior
T:Constantijn Huygens
T:In quo corriget adolescentior
T:Psalmus 119:9,10
C:Constantijn Huygens
%%score 1 { ( 2 4 ) | ( 3 5 ) }
L:1/8
Q:1/4=72
M:4/4
K:A
V:1 treble nm="Soprano" snm="S"
V:2 treble nm="Organ" snm="Org."
V:4 treble 
V:3 bass 
V:5 bass 
V:1
 z2 A2 c4 | A2 e2 e3 d | ccde fB B2- | B2 ed c4 | B4 z4 | EEEF G2 G2 | EEGA B2 BB | %7
w: In quo,|in quo cor- ri-|get a- do- les- cen- ti- or|_ vi- am su-|am?|in cu- sto- di- en- do,|in cu- sto- di- en- do ser-|
 B2 B/c/B/A/ G>A G/A/B/E/ | F2 G2 F4 | E8 :: z BBB B2 B2 | z2 cB e3 f | ^d2 e2 ffBe | e3 ^d e2 GA | %14
w: mo- * * * * * * * * * *|* nes tu-|os.|In to- to cor- de,|to- to, to- to|cor- de me- o ex- qui-|si- vi, _ ex- qui-|
 BE A2 AG/A/ B/G/c | B3 c c4 | z4 c4- | cAAG F2 f2- | f2 ef ^dc B2 | z2 e2 z2 A2 | z2 c3 cBA | %21
w: si- * * * * * * * *|* vi te;|ne|_ re- pel- las me, ne,|_ ne re- pel- las, _|ne, ne,|ne re- pel- las|
 G2 BB d4- | ddcB e4 | G2 A2 A3 G | A8 :| %25
w: me a man- da-|* tis, a man- da-|* tis tu- is.|_|
V:2
 [CE]8 | A4 B4 | A6 B2 | B4 A4 | [EG]8 | [G,B,]8- | [G,B,E]8 | ^D2 E6 | ^D2 E2 D4 | [G,B,E]8 :: %10
 =G6 z ^G | GG G2 A2 c2 | B8 | B2 A2 [EG]2 B2 | [B,E]2 [CE]2 [B,E]4 | E2 [CE]2 [A,CF-]4 | %16
 [DFA]4 [EAc]4 | [CE]4 [DF]4 | [F-c]4 [^DF]4 | z2 [GB]2 z2 [CE]2 | A8 | x8 | E8 | E8 | [CE]8 :| %25
V:3
 A,,8 | A,4 G,4 | A,2 F,E, D,2 =G,2- | G,2 ^G,2 A,4 | E,8 | E,8 | E,,8 | B,,8 | B,,8 | E,8 :: %10
 E,4 E4- | E2 D2 C2 ^A,2 | B,4 B,2 G,2 | B,2 B,,2 C,2 B,,A,, | G,,2 A,,2 E,4 | A,2 G,2 F,4- | %16
 F,4 A,4 | C,4 D,2 D2 | ^A,4 B,3 =A, | G,4 A,2 A,,2 | F,,4 C,,2 D,,2 | E,,8 | E,4 E,4 | E,,8 | %24
 A,,8 :| %25
V:4
 x8 | [CE]4 D4 | E4 D4 | E8 | x8 | x8 | x8 | F,8- | F,8 | x8 :: x8 | x8 | F2 G2 F2 E2 | F4 z4 | %14
 x8 | x8 | x8 | x8 | x8 | x8 | C8 | [B,E]8 | G,4 G,2 A,2 | B,2 C4 B,2 | x8 :| %25
V:5
 x8 | x8 | x8 | x8 | x8 | x8 | x8 | x8 | x8 | x8 :: x8 | x8 | x8 | x8 | x8 | E,4 A,,4- | A,,8 | %17
 x8 | x8 | x8 | x8 | x8 | x8 | x8 | x8 :| %25

